X: 80
P: No. LXXX.
M: C
L: 1/8
Q: "Dolce"
K: Gdor
V: 1
(GF) |\
|: d2 |\
(fd)(fg) a2(gf) | (dc) (d/e/f) (F>G)(FD) |
(fd)(fg) a2(gf) | d2(ga) g2(ag) |\
(fd)(fg) a2(gf) | (dc) (d/e/f) (F>G)(FD) |\
(D>G) cA (GF) fd | (d>c) TA>G G2 :|
V: 2 clef=bass middle=d
z2 |\
g2d2 B2A2 | B2c2 d2D2 |\
|: z2 |\
d2d2 d2d2 | B2B2 B2B2 |
d2d2 d2d2 | g2G2 G2z2 |\
d2D2 D2z2 | b2B2 B2z2 |\

